src/renderer/assets/icon/history-hover-icon.svg

<?xml version="1.0" encoding="UTF-8"?>
<svg width="30px" height="30px" viewBox="0 0 30 30" version="1.1" xmlns="http://www.w3.org/2000/svg" xmlns:xlink="http://www.w3.org/1999/xlink">
    <!-- Generator: Sketch 58 (84663) - https://sketch.com -->
    <title>sidebar/__button/--history</title>
    <desc>Created with Sketch.</desc>
    <g id="sidebar/__button/--history" stroke="none" stroke-width="1" fill="none" fill-rule="evenodd">
        <path d="M19.948005,10.04 C21.2655326,11.3522432 22.0042582,13.1364532 21.9999815,14.996 C21.9999815,16.876 21.2719778,18.629 19.948005,19.951 C18.6284876,21.2609207 16.8453917,21.9972444 14.9861067,22 C13.1961435,22 11.4041802,21.31 10.0422081,19.932 C7.31926396,17.212 7.31926396,12.76 10.0422081,10.04 C12.7671522,7.32 17.2240608,7.32 19.948005,10.04 Z M15.7053903,10.7004892 L13.8617541,10.7004892 L13.8617541,16.4976152 L18.7736606,16.4976152 L18.7736606,14.6493732 L15.7053903,14.6493732 L15.7053903,10.7004892 Z" id="icon--history" fill="#B4B5C4" fill-rule="nonzero"></path>
    </g>
</svg>

<svg width="30" height="30" xmlns="http://www.w3.org/2000/svg">
    <path d="M19.948 10.04A6.972 6.972 0 0122 14.996c0 1.88-.728 3.633-2.052 4.955A7.058 7.058 0 0114.986 22c-1.79 0-3.582-.69-4.944-2.068-2.723-2.72-2.723-7.172 0-9.892 2.725-2.72 7.182-2.72 9.906 0zm-4.243.66h-1.843v5.798h4.912v-1.849h-3.069V10.7z" fill="#B4B5C4"/>
</svg>
